my-portfolio/src/assets/Svgs/Github.svg

<?xml version="1.0" encoding="utf-8"?>
<!-- Generator: Adobe Illustrator 25.2.3, SVG Export Plug-In . SVG Version: 6.00 Build 0)  -->
<svg version="1.1" id="Layer_1" xmlns="http://www.w3.org/2000/svg" xmlns:xlink="http://www.w3.org/1999/xlink" x="0px" y="0px"
	 viewBox="0 0 75 75" style="enable-background:new 0 0 75 75;" xml:space="preserve">
<style type="text/css">
	.st0{fill-rule:evenodd;clip-rule:evenodd;fill:#FFFFFF;}
	.st1{fill:#EEEEEE;}
</style>
<path class="st0" d="M37.4,0C16.7,0,0,17.1,0,38.4c0,17,10.7,31.3,25.6,36.5c1.8,0.4,2.6-0.8,2.6-1.8c0-0.9,0-4-0.1-7.1
	c-10.4,2.3-12.6-4.5-12.6-4.5c-1.7-4.4-4.1-5.6-4.1-5.6c-3.4-2.3,0.3-2.3,0.3-2.3c3.8,0.3,5.7,4,5.7,4c3.3,5.9,8.8,4.2,10.9,3.2
	c0.4-2.5,1.3-4.2,2.4-5.1c-8.4-1-17.1-4.2-17.1-19c0-4.2,1.5-7.6,3.9-10.3c-0.4-1-1.7-4.9,0.4-10.2c0,0,3.2-1,10.3,4
	c3-0.8,6.2-1.3,9.3-1.3c3.2,0,6.4,0.5,9.4,1.3c7.1-5,10.3-4,10.3-4c2,5.3,0.8,9.2,0.4,10.2c2.4,2.7,3.9,6.1,3.9,10.3
	c0,14.7-8.8,18-17.1,19c1.3,1.2,2.6,3.5,2.6,7.1c0,5.1,0,9.3,0,10.6c0,1,0.7,2.3,2.6,1.8C64.3,69.9,75,55.4,75,38.4
	C74.8,17.2,58.1,0,37.4,0z"/>
<path class="st1" d="M14.2,55.1c-0.1,0.2-0.4,0.3-0.6,0.1c-0.3-0.1-0.4-0.4-0.4-0.5c0.1-0.2,0.4-0.3,0.6-0.1
	C14.1,54.7,14.3,55,14.2,55.1z M15.7,56.9c-0.2,0.2-0.5,0.1-0.8-0.2s-0.3-0.6-0.1-0.8s0.5-0.1,0.8,0.2
	C15.8,56.3,15.8,56.7,15.7,56.9z M17.2,59.1c-0.3,0.2-0.6,0-0.9-0.4s-0.3-0.7,0-0.9s0.6,0,0.9,0.4C17.3,58.5,17.3,58.9,17.2,59.1z
	 M19.2,61.2c-0.2,0.3-0.6,0.2-1-0.2c-0.4-0.3-0.4-0.7-0.2-1c0.2-0.3,0.6-0.2,1,0.2C19.3,60.6,19.4,61,19.2,61.2z M21.9,62.5
	c-0.1,0.3-0.5,0.5-1,0.3c-0.4-0.1-0.7-0.5-0.6-0.8s0.5-0.5,1-0.3C21.7,61.8,22,62.2,21.9,62.5z M25,62.7c0,0.3-0.4,0.5-0.8,0.5
	s-0.8-0.3-0.8-0.5c0-0.4,0.4-0.5,0.8-0.6C24.6,62.1,25,62.4,25,62.7z M27.9,62.2c0.1,0.3-0.3,0.6-0.7,0.7c-0.4,0.1-0.9-0.1-0.9-0.5
	c-0.1-0.3,0.3-0.6,0.7-0.7C27.4,61.7,27.8,61.9,27.9,62.2z"/>
</svg>

<svg width="75" height="75" viewBox="0 0 75 75" fill="none" xmlns="http://www.w3.org/2000/svg">
<g clip-path="url(#clip0_2_2)">
<path fill-rule="evenodd" clip-rule="evenodd" d="M37.4 0C16.7 0 0 17.1 0 38.4C0 55.4 10.7 69.7 25.6 74.9C27.4 75.3 28.2 74.1 28.2 73.1C28.2 72.2 28.2 69.1 28.1 66C17.7 68.3 15.5 61.5 15.5 61.5C13.8 57.1 11.4 55.9 11.4 55.9C8 53.6 11.7 53.6 11.7 53.6C15.5 53.9 17.4 57.6 17.4 57.6C20.7 63.5 26.2 61.8 28.3 60.8C28.7 58.3 29.6 56.6 30.7 55.7C22.3 54.7 13.6 51.5 13.6 36.7C13.6 32.5 15.1 29.1 17.5 26.4C17.1 25.4 15.8 21.5 17.9 16.2C17.9 16.2 21.1 15.2 28.2 20.2C31.2 19.4 34.4 18.9 37.5 18.9C40.7 18.9 43.9 19.4 46.9 20.2C54 15.2 57.2 16.2 57.2 16.2C59.2 21.5 58 25.4 57.6 26.4C60 29.1 61.5 32.5 61.5 36.7C61.5 51.4 52.7 54.7 44.4 55.7C45.7 56.9 47 59.2 47 62.8C47 67.9 47 72.1 47 73.4C47 74.4 47.7 75.7 49.6 75.2C64.3 69.9 75 55.4 75 38.4C74.8 17.2 58.1 0 37.4 0Z" fill="#131110"/>
<path d="M14.2 55.1C14.1 55.3 13.8 55.4 13.6 55.2C13.3 55.1 13.2 54.8 13.2 54.7C13.3 54.5 13.6 54.4 13.8 54.6C14.1 54.7 14.3 55 14.2 55.1ZM15.7 56.9C15.5 57.1 15.2 57 14.9 56.7C14.6 56.4 14.6 56.1 14.8 55.9C15 55.7 15.3 55.8 15.6 56.1C15.8 56.3 15.8 56.7 15.7 56.9ZM17.2 59.1C16.9 59.3 16.6 59.1 16.3 58.7C16 58.3 16 58 16.3 57.8C16.6 57.6 16.9 57.8 17.2 58.2C17.3 58.5 17.3 58.9 17.2 59.1ZM19.2 61.2C19 61.5 18.6 61.4 18.2 61C17.8 60.7 17.8 60.3 18 60C18.2 59.7 18.6 59.8 19 60.2C19.3 60.6 19.4 61 19.2 61.2ZM21.9 62.5C21.8 62.8 21.4 63 20.9 62.8C20.5 62.7 20.2 62.3 20.3 62C20.4 61.7 20.8 61.5 21.3 61.7C21.7 61.8 22 62.2 21.9 62.5ZM25 62.7C25 63 24.6 63.2 24.2 63.2C23.8 63.2 23.4 62.9 23.4 62.7C23.4 62.3 23.8 62.2 24.2 62.1C24.6 62.1 25 62.4 25 62.7ZM27.9 62.2C28 62.5 27.6 62.8 27.2 62.9C26.8 63 26.3 62.8 26.3 62.4C26.2 62.1 26.6 61.8 27 61.7C27.4 61.7 27.8 61.9 27.9 62.2Z" fill="#EEEEEE"/>
</g>
<defs>
<clipPath id="clip0_2_2">
<rect width="75" height="75" fill="white"/>
</clipPath>
</defs>
</svg>
